!! 00000] TT[WS
!!!OTL: Ge jiucai
!!!ARE: Asia, China,ÿShanxi
!! Ethnic Group: Han
!! WI, 73 (1)
!!!SCT: J0087
!!!YEM: Copyright 1995, estate of Helmut Schaffrath.
**kern
*ICvox
*Ivox
*M2/4
*k[f#c#]
*D:
{8a
8a
8g
8e
=1
8a
16b
16a
8g
8e
=2
4a
4d
=3
8.e
16f#
8e
8e}
=4
{8.a
16e
8a
8a
=5
8e
8f#
8e
16d
16d
=6
8b
8E
8d
8B
=7
8A
8G
4A}
=8
{8.g
16e
8d
8cn
=9
8B
8e
8d
8B
=10
8A
8G
4A}
==
!!!AGN: Xiaodiao. Laodong, Shouhuo
!!!ONB: ESAC (Essen Associative Code) Database: CHINA
!!!AMT: simple duple
!!!AIN: vox
!!!EED: Helmut Schaffrath
!!!EEV: 1.0
*-
